_assets/images/icon-apple.svg

<svg fill="none" height="24" viewBox="0 0 24 24" width="24" xmlns="http://www.w3.org/2000/svg"><path d="m23.9974 6.12366c-.0008-.73811-.0647-1.47111-.2401-2.19134-.3166-1.30765-1.0616-2.30967-2.1802-3.041823-.5738-.375439-1.2038-.607002-1.8764-.727892-.5176-.0927955-1.0394-.1353623-1.5647-.1506863-.0409-.0017027-.0834-.00766202-.1243-.0119187h-12.02426c-.15154.00851335-.30308.0170267-.45462.0255401-.74747.0425667-1.48983.1242949-2.19218.4018299-1.3383.529531-2.30201 1.45238-2.867298 2.77876-.19155.4495-.292008.92625-.362668 1.40896-.0570399.39161-.0893906.78493-.100458 1.1808-.00085132.03065-.007662.0613-.010216.09195v12.22436c.00851335.1413.0161754.2826.02554.4239.0502288.8148.154092 1.6244.49718 2.3727.65042 1.42 1.73757 2.3531 3.23422 2.8017.42141.1269.85559.1873 1.29318.2282.55422.0528 1.11014.0613 1.66606.0613 3.67692 0 7.35382 0 11.03072-.0017.5253 0 1.048-.0332 1.5699-.0988.8232-.1055 1.5971-.3507 2.296-.8104.8412-.5534 1.472-1.2873 1.8798-2.2084.1864-.4214.2928-.8692.3695-1.3238.114-.6751.1387-1.3579.1379-2.0407-.0017-3.7978.0008-7.59474-.0026-11.39254zm-6.4233 3.99024c0 1.9044.0009 3.8088-.0008 5.7124 0 .4172-.0571.8267-.2427 1.2064-.2886.5908-.7611.962-1.3877 1.1399-.349.0996-.7057.1567-1.0692.1728-.9518.0452-1.7742-.6002-1.9445-1.5358-.1413-.7721.2282-1.6235 1.0395-2.0211.3235-.16.6692-.2494 1.0182-.3243.378-.0817.7577-.1533 1.134-.2401.2741-.063.4571-.2307.5108-.5159.0127-.063.0179-.1285.0179-.1932.0008-1.8151.0008-3.62929-.0009-5.44349 0-.06215-.0102-.12514-.0255-.18474-.0392-.15068-.149-.24263-.304-.23411-.16.00936-.3175.0349-.475.0664-.7602.14983-1.5196.30393-2.279.45717-.7756.15579-1.5512.31329-2.3276.46993-.458.0928-.916.18474-1.37403.27754-.01618.0034-.03236.00851-.04768.01277-.27668.07662-.37714.20347-.38991.48952-.0017.04342-.00085.08683-.00085.1311-.00085 2.60171 0 5.20421-.0017 7.80501 0 .4206-.04683.836-.21539 1.2268-.27839.6419-.77046 1.0412-1.4345 1.2344-.35075.1014-.71087.1592-1.07524.172-.9586.0358-1.7546-.601-1.91891-1.5443-.14217-.813.22986-1.6856 1.15271-2.0764.35671-.1498.7313-.2324 1.10759-.3107.2869-.0605.57465-.115.8607-.1763.38225-.0834.58231-.3235.59849-.7142.0017-.0511.00085-.0997.00085-.1507 0-2.9601 0-5.92107.0017-8.88117 0-.12344.01277-.25029.04172-.37033.06981-.28519.27327-.4478.5457-.51846.2554-.0664.51506-.11238.77386-.16516.73299-.14813 1.46599-.29541 2.19899-.44269.7577-.15324 1.5145-.30563 2.2722-.45887.6692-.13537 1.3383-.27243 2.0092-.40439.2196-.04342.4427-.08768.664-.10556.3099-.02469.5227.17026.5542.48185.0077.07407.012.14899.012.2239.0017 1.91125.0017 3.82165.0008 5.73208z" fill="#fff"/></svg>

<svg width="24" height="24" viewBox="0 0 24 24" fill="none" xmlns="http://www.w3.org/2000/svg">
<path d="M23.9974 6.12366C23.9966 5.38555 23.9327 4.65255 23.7573 3.93232C23.4407 2.62467 22.6957 1.62265 21.5771 0.890497C21.0033 0.515058 20.3733 0.283495 19.7007 0.162605C19.1831 0.0698095 18.6613 0.0272427 18.136 0.0119187C18.0951 0.010216 18.0526 0.00425668 18.0117 0H5.98744C5.8359 0.00851335 5.68436 0.0170267 5.53282 0.0255401C4.78535 0.0681068 4.04299 0.149835 3.34064 0.42737C2.00234 0.956901 1.03863 1.87975 0.473342 3.20613C0.281792 3.65563 0.181334 4.13238 0.110674 4.61509C0.0536341 5.0067 0.0212834 5.40002 0.010216 5.79589C0.00936468 5.82654 0.002554 5.85719 0 5.88784V18.1122C0.00851335 18.2535 0.0161754 18.3948 0.02554 18.5361C0.0757688 19.3509 0.179632 20.1605 0.52272 20.9088C1.17314 22.3288 2.26029 23.2619 3.75694 23.7105C4.17835 23.8374 4.61253 23.8978 5.05012 23.9387C5.60434 23.9915 6.16026 24 6.71618 24C10.3931 24 14.07 24 17.7469 23.9983C18.2722 23.9983 18.7949 23.9651 19.3168 23.8995C20.14 23.794 20.9139 23.5488 21.6128 23.0891C22.454 22.5357 23.0848 21.8018 23.4926 20.8807C23.679 20.4593 23.7854 20.0115 23.8621 19.5569C23.9761 18.8818 24.0008 18.199 24 17.5162C23.9983 13.7184 24.0008 9.92146 23.9974 6.12366ZM17.5741 10.1139C17.5741 12.0183 17.575 13.9227 17.5733 15.8263C17.5733 16.2435 17.5162 16.653 17.3306 17.0327C17.042 17.6235 16.5695 17.9947 15.9429 18.1726C15.5939 18.2722 15.2372 18.3293 14.8737 18.3454C13.9219 18.3906 13.0995 17.7452 12.9292 16.8096C12.7879 16.0375 13.1574 15.1861 13.9687 14.7885C14.2922 14.6285 14.6379 14.5391 14.9869 14.4642C15.3649 14.3825 15.7446 14.3109 16.1209 14.2241C16.395 14.1611 16.578 13.9934 16.6317 13.7082C16.6444 13.6452 16.6496 13.5797 16.6496 13.515C16.6504 11.6999 16.6504 9.88571 16.6487 8.07151C16.6487 8.00936 16.6385 7.94637 16.6232 7.88677C16.584 7.73609 16.4742 7.64414 16.3192 7.65266C16.1592 7.66202 16.0017 7.68756 15.8442 7.71906C15.084 7.86889 14.3246 8.02299 13.5652 8.17623C12.7896 8.33202 12.014 8.48952 11.2376 8.64616C10.7796 8.73896 10.3216 8.8309 9.86357 8.9237C9.84739 8.9271 9.83121 8.93221 9.81589 8.93647C9.53921 9.01309 9.43875 9.13994 9.42598 9.42599C9.42428 9.46941 9.42513 9.51282 9.42513 9.55709C9.42428 12.1588 9.42513 14.7613 9.42343 17.3621C9.42343 17.7827 9.3766 18.1981 9.20804 18.5889C8.92965 19.2308 8.43758 19.6301 7.77354 19.8233C7.42279 19.9247 7.06267 19.9825 6.6983 19.9953C5.7397 20.0311 4.9437 19.3943 4.77939 18.451C4.63722 17.638 5.00925 16.7654 5.9321 16.3746C6.28881 16.2248 6.6634 16.1422 7.03969 16.0639C7.32659 16.0034 7.61434 15.9489 7.90039 15.8876C8.28264 15.8042 8.4827 15.5641 8.49888 15.1734C8.50058 15.1223 8.49973 15.0737 8.49973 15.0227C8.49973 12.0626 8.49973 9.10163 8.50143 6.14153C8.50143 6.01809 8.5142 5.89124 8.54315 5.7712C8.61296 5.48601 8.81642 5.3234 9.08885 5.25274C9.34425 5.18634 9.60391 5.14036 9.86271 5.08758C10.5957 4.93945 11.3287 4.79217 12.0617 4.64489C12.8194 4.49165 13.5762 4.33926 14.3339 4.18602C15.0031 4.05065 15.6722 3.91359 16.3431 3.78163C16.5627 3.73821 16.7858 3.69395 17.0071 3.67607C17.317 3.65138 17.5298 3.84633 17.5613 4.15792C17.569 4.23199 17.5733 4.30691 17.5733 4.38182C17.575 6.29307 17.575 8.20347 17.5741 10.1139Z" fill="white"/>
</svg>
